X:1
T:Title
%%score { 1 | ( 2 3 ) }
L:1/8
M:4/4
K:Ab
V:1 treble nm="Grand Piano"
V:2 bass 
V:3 bass 
V:1
 z4 z2[Q:1/4=96] [Ec][DB] | [CA]2 [DA]2 [CA]2 [DG][EA] | B2 F2 F2 GF | [CE]2 [CA][EA] [DG]2 [CA]2 | %4
 [EB]6 [Ec][DB] | [CA]2 [DA]2 [CA]2 [DG][EA] | B2 F2 F2 GF | E2 AA B2 G2 |[M:3/4] [CA]6 | %9
[M:1/4] cd |[M:4/4] e2 e2 ecBA | [Gd]2 [Gd]2 [Gd]cBG | A2 A2 [=DA][DA][DB][Dc] | B6 cd | %14
 e2 e2 ecBA | [FB]2 [FB]2 [FB][FA][EG]F | EAAB c2 B2 |[M:3/4] [CA]6 |] %18
V:2
 z4 z2 [A,,A,][A,,A,] | [A,,A,]2 [A,,F,]2 [A,,E,]2 [B,,E,][C,A,] | %2
 [D,F,D]2 [D,A,D]2 [D,A,D]2 [D,A,D][D,A,D] | [A,,A,]2 [A,,A,][C,A,] [B,,E,]2 [A,,A,]2 | %4
 [E,G,]6 [A,,A,][A,,A,] | [A,,A,]2 [A,,F,]2 [A,,E,]2 [B,,E,][C,A,] | %6
 [D,F,D]2 [D,A,D]2 [D,A,D]2 [=D,A,_C][D,A,C] | [E,A,C]2 CC [E,G,D]2 [E,B,D]2 |[M:3/4] [A,,A,]6 | %9
[M:1/4][K:treble] [A,E][A,B,E] |[M:4/4] [A,CA]2 [A,CA]2 [A,CA][K:bass][A,E][A,DE][A,CE] | %11
 [E,B,]2 [E,B,]2 [E,B,][E,A,E][E,G,E][=E,G,D] | [F,A,C]2 [F,A,C]2 [B,,B,][B,,B,][B,,A,][B,,A,] | %13
 [E,G,E]6[K:treble] [A,E][A,B,E] | [A,CA]2 [A,CA]2 [A,CA][K:bass][A,E][A,DE][A,CE] | %15
 [D,D]2 [D,D]2 [D,D][D,D][D,D][D,A,D] | [E,A,C][E,A,C][F,A,=D][F,A,D] [E,A,E]2 [E,G,_D]2 | %17
[M:3/4] [A,,A,]6 |] %18
V:3
 x8 | x8 | x8 | x8 | x8 | x8 | x8 | z2 [E,A,]2 z4 |[M:3/4] x6 |[M:1/4][K:treble] x2 | %10
[M:4/4] x5[K:bass] x3 | x8 | x8 | x6[K:treble] x2 | x5[K:bass] x3 | x8 | x8 |[M:3/4] x6 |] %18

